X: 10487
T: Donny Golden's Elbow
R: polka
M: 2/4
K: Adorian
|:ag ed|eA AB|BA GE|EF GE|GE GA|
BA Bd|1 ea ag|ed Bd:|2 e2 fd|e2 e2||
|:eg fd|ed Bd|GE G>A|BA Bd|
ea ag|ed Bd|eg fd|e2 e2:|

